build/assets/img/svg/icon-arrow-5.svg

<svg width="137" height="106" viewBox="0 0 137 106" fill="none" xmlns="http://www.w3.org/2000/svg">
<path d="M5.86359 73.5343L7.42721 73.7738C7.6945 72.6067 8.11814 71.4636 8.8545 70.3684L7.5618 69.6527C6.63089 70.8907 6.16906 72.2005 5.86359 73.5343ZM5.53445 77.7981C5.69807 79.2038 6.05625 80.4666 6.76531 81.6106L8.12711 80.6112C7.5744 79.4911 7.17805 78.395 7.09442 77.3468L5.53445 77.7981ZM10.1218 66.2483L11.1436 67.4402C11.9982 66.5356 12.9709 65.8218 14.1382 64.9651L13.3109 63.6304C12.1437 64.4871 10.9764 65.3437 10.1218 66.2483ZM25.2189 3.1564C25.0698 4.51414 24.9206 5.87185 24.9661 7.0868L26.6061 6.99285C26.7552 5.63513 26.8661 4.44413 27.0152 3.0864L25.2189 3.1564ZM24.8697 11.0412C24.8769 12.4228 24.9224 13.6378 24.9296 15.0195L26.6078 14.7588C26.5623 13.5438 26.5551 12.1622 26.5096 10.9472L24.8697 11.0412ZM9.3198 84.5904C10.2616 85.425 11.3979 86.1167 12.3779 86.7845L13.2288 85.1892C12.2107 84.6881 11.2307 84.0203 10.4453 83.2097L9.3198 84.5904ZM25.1841 18.855C25.3859 20.0939 25.5495 21.4995 25.7513 22.7384L27.3113 22.2871C27.1095 21.0482 26.9077 19.8093 26.8623 18.5943L25.1841 18.855ZM16.6982 61.5607L17.3309 63.0382C18.4218 62.515 19.5127 61.9918 20.76 61.4925L20.3218 59.8723C19.0745 60.3715 17.8273 60.8708 16.6982 61.5607ZM26.3185 26.6218C26.4785 27.3366 26.6385 28.0514 26.7985 28.7662C26.9967 29.3143 27.0385 29.8384 27.2749 30.2197L28.873 29.6016C28.6748 29.0536 28.5949 28.6962 28.3967 28.1481C28.2367 27.4333 28.0767 26.7185 27.9167 26.0038L26.3185 26.6218ZM28.5439 33.8655C28.902 35.1283 29.2984 36.2245 29.8129 37.5113L31.2929 36.7025C30.8966 35.6064 30.5384 34.3435 30.142 33.2474L28.5439 33.8655ZM16.1342 88.0501C17.3851 88.2417 18.6742 88.2666 20.0396 87.958L19.9524 86.219C18.7815 86.3848 17.6488 86.3838 16.5542 86.2162L16.1342 88.0501ZM24.0254 58.5413L24.3072 60.1376C25.5163 59.805 26.7636 59.3058 27.9727 58.9733L27.6909 57.377C26.4818 57.7095 25.2727 58.042 24.0254 58.5413ZM30.9637 40.9664C31.3601 42.0625 31.7183 43.3253 32.271 44.4454L33.8692 43.8273C33.511 42.5645 33.1146 41.4684 32.6001 40.1816L30.9637 40.9664ZM23.4233 85.1974L23.8996 86.651C25.1469 86.1517 26.3141 85.2951 27.4814 84.4384L26.6542 83.1037C25.4869 83.9604 24.5142 84.6742 23.4233 85.1974ZM31.4745 56.4033L31.7562 57.9996C32.9653 57.6671 34.1744 57.3346 35.3453 57.1688C35.5053 57.8836 35.5089 58.5744 35.5126 59.2652L37.1907 59.0046C37.1453 57.7896 36.9817 56.384 36.6235 55.1211L35.0635 55.5725C33.8926 55.7383 32.6835 56.0708 31.4745 56.4033ZM33.3836 48.0672C33.5818 48.6153 33.6618 48.9727 33.86 49.5208C34.02 50.2356 34.18 50.9503 34.4963 51.6891L36.0945 51.071C35.9345 50.3562 35.7745 49.6414 35.4581 48.9027C35.26 48.3546 35.2182 47.8305 34.9818 47.4492L33.3836 48.0672ZM29.336 80.5808L30.5523 81.6299C31.4451 80.5587 32.3378 79.4874 33.0742 78.3922L31.8197 77.5098C30.9269 78.5811 30.1905 79.6763 29.336 80.5808ZM35.8052 62.9341C35.8125 64.3157 35.7016 65.5067 35.5906 66.6977L37.1924 66.7705C37.3416 65.4128 37.4907 64.055 37.4452 62.8401L35.8052 62.9341ZM33.5597 74.1523L35.0469 74.7253C35.4324 73.7489 35.8179 72.7725 36.2415 71.6294C36.3179 71.2959 36.3942 70.9625 36.4324 70.7958L34.8688 70.5563C34.7924 70.8897 34.7542 71.0565 34.6779 71.3899C34.3306 72.1996 33.9452 73.1759 33.5597 74.1523ZM38.8472 54.5989L38.9344 56.3379C40.1053 56.1721 41.4707 55.8636 42.6416 55.6978L42.5544 53.9587C41.3835 54.1245 40.1744 54.457 38.8472 54.5989ZM46.418 53.3425L46.5052 55.0815C47.6761 54.9157 49.0034 54.7739 50.1743 54.6081L50.2434 52.893C48.9162 53.0348 47.7452 53.2006 46.418 53.3425ZM53.9925 52.7769L53.9234 54.492C55.2506 54.3502 56.3833 54.3511 57.6724 54.3759L57.7415 52.6608C56.4906 52.4692 55.1634 52.6111 53.9925 52.7769ZM61.5288 52.378L61.3033 54.0692C62.5924 54.0941 63.7251 54.095 65.0142 54.1199L65.2396 52.4287C63.9506 52.4038 62.6615 52.379 61.5288 52.378ZM68.9123 52.6461L68.6869 54.3372C69.9759 54.3621 71.0705 54.5298 72.3595 54.5546L72.585 52.8635C71.4523 52.8625 70.1632 52.8377 68.9123 52.6461ZM76.3377 53.4382L75.9558 55.1054C76.7377 55.2252 77.6758 55.3689 78.4576 55.4886L79.5522 55.6563L79.934 53.989L78.8395 53.8214C78.0577 53.7017 77.1195 53.558 76.3377 53.4382ZM83.1485 56.2071C84.3994 56.3987 85.4557 56.733 86.7066 56.9246L87.2448 55.2814C86.0321 54.923 84.7812 54.7315 83.6867 54.5638L83.1485 56.2071ZM90.1884 57.9756C91.4011 58.3339 92.4575 58.6683 93.6702 59.0266L94.2084 57.3833C92.9957 57.025 91.9393 56.6907 90.7266 56.3323L90.1884 57.9756ZM97.1519 60.0776C98.3647 60.4359 99.3828 60.937 100.596 61.2953L101.29 59.676C100.077 59.3177 99.0592 58.8166 97.8465 58.4583L97.1519 60.0776ZM103.883 62.4891C105.057 63.0141 106.075 63.5152 107.132 63.8496L107.983 62.2542C106.808 61.7292 105.79 61.2281 104.615 60.703L103.883 62.4891ZM110.461 65.5674C111.479 66.0685 112.654 66.5936 113.633 67.2614L114.484 65.666C113.466 65.1649 112.33 64.4732 111.312 63.9721L110.461 65.5674ZM116.768 69.122C117.748 69.7898 118.766 70.2909 119.902 70.9827L120.872 69.578C119.892 68.9101 118.755 68.2184 117.737 67.7173L116.768 69.122Z" fill="black"/>
<path d="M114.235 75.0787L113.996 73.3516L121.712 71.4898L120.178 63.6475L121.705 63.2052L123.632 72.798L114.235 75.0787Z" fill="black"/>
</svg>

<svg width="137" height="106" fill="none" xmlns="http://www.w3.org/2000/svg"><path d="M5.864 73.534l1.563.24c.268-1.167.691-2.31 1.428-3.406l-1.293-.715C6.63 70.89 6.169 72.2 5.864 73.534zm-.33 4.264c.164 1.406.522 2.669 1.231 3.813l1.362-1c-.553-1.12-.949-2.216-1.033-3.264l-1.56.451zm4.588-11.55l1.022 1.192c.854-.904 1.827-1.618 2.994-2.475l-.827-1.335c-1.167.857-2.335 1.714-3.19 2.618zM25.219 3.156c-.15 1.358-.298 2.716-.253 3.93l1.64-.093c.15-1.358.26-2.549.41-3.907l-1.797.07zm-.35 7.885c.008 1.382.053 2.597.06 3.979l1.679-.261c-.046-1.215-.053-2.597-.098-3.812l-1.64.094zM9.32 84.591c.943.834 2.079 1.526 3.059 2.194l.85-1.596c-1.017-.5-1.997-1.169-2.783-1.98L9.32 84.59zm15.865-65.736c.202 1.239.365 2.645.567 3.883l1.56-.45c-.201-1.24-.403-2.479-.449-3.694l-1.678.261zm-8.486 42.706l.633 1.477c1.09-.523 2.182-1.046 3.429-1.545l-.438-1.62c-1.247.498-2.495.998-3.624 1.688zm9.62-34.94l.48 2.145c.199.548.24 1.072.477 1.454l1.598-.618c-.198-.548-.278-.906-.476-1.454l-.48-2.144-1.599.618zm2.226 7.244c.358 1.263.754 2.36 1.269 3.646l1.48-.809c-.396-1.096-.755-2.358-1.151-3.455l-1.598.618zM16.134 88.05c1.251.192 2.54.217 3.906-.092l-.088-1.739a11.58 11.58 0 01-3.398-.003l-.42 1.834zm7.891-29.509l.282 1.597c1.21-.333 2.457-.832 3.666-1.165l-.282-1.596c-1.21.332-2.418.665-3.666 1.164zm6.939-17.575c.396 1.096.754 2.36 1.307 3.48l1.598-.619c-.358-1.262-.754-2.359-1.269-3.645l-1.636.784zm-7.54 44.231l.476 1.454c1.247-.5 2.414-1.356 3.581-2.213l-.827-1.334c-1.167.856-2.14 1.57-3.23 2.093zm8.05-28.794L31.756 58c1.21-.333 2.418-.665 3.59-.831.16.715.163 1.405.167 2.096l1.678-.26c-.046-1.215-.21-2.621-.568-3.884l-1.56.451c-1.17.166-2.38.499-3.589.831zm1.91-8.336c.198.548.278.906.476 1.454.16.715.32 1.43.636 2.168l1.598-.618c-.16-.715-.32-1.43-.636-2.168-.198-.548-.24-1.072-.476-1.454l-1.598.618zm-4.048 32.514l1.216 1.049c.893-1.071 1.786-2.143 2.522-3.238l-1.254-.882c-.893 1.071-1.63 2.166-2.484 3.07zm6.47-17.647c.007 1.382-.104 2.573-.215 3.764l1.601.073c.15-1.358.299-2.716.253-3.93l-1.64.093zM33.56 74.152l1.487.573c.385-.976.77-1.953 1.195-3.096l.19-.833-1.563-.24-.191.834c-.347.81-.733 1.786-1.118 2.762zM38.847 54.6l.087 1.739c1.171-.166 2.537-.474 3.708-.64l-.088-1.74c-1.17.166-2.38.499-3.707.64zm7.571-1.256l.087 1.738c1.171-.165 2.498-.307 3.67-.473l.068-1.715c-1.327.142-2.498.308-3.825.45zm7.575-.566l-.07 1.715c1.328-.142 2.46-.14 3.75-.116l.069-1.715c-1.251-.192-2.579-.05-3.75.116zm7.536-.399l-.226 1.691c1.29.025 2.422.026 3.711.05l.226-1.69c-1.29-.025-2.578-.05-3.711-.051zm7.383.268l-.225 1.691c1.289.025 2.383.193 3.672.218l.226-1.691c-1.133-.002-2.422-.026-3.673-.218zm7.426.792l-.382 1.667 2.502.384 1.094.167.382-1.667-1.094-.168-2.502-.383zm6.81 2.77c1.251.19 2.308.525 3.559.717l.538-1.644c-1.213-.358-2.464-.55-3.558-.717l-.538 1.643zm7.04 1.768c1.213.358 2.27.692 3.482 1.05l.538-1.643c-1.212-.358-2.269-.692-3.481-1.05l-.539 1.643zm6.964 2.102c1.213.358 2.23.859 3.444 1.217l.694-1.619c-1.213-.358-2.23-.86-3.444-1.218l-.694 1.62zm6.731 2.411c1.174.525 2.192 1.026 3.249 1.36l.851-1.595c-1.175-.525-2.193-1.026-3.368-1.551l-.732 1.786zm6.578 3.078c1.018.502 2.193 1.027 3.172 1.694l.851-1.595c-1.018-.501-2.154-1.193-3.172-1.694l-.851 1.595zm6.307 3.555c.98.668 1.998 1.169 3.134 1.86l.97-1.404c-.98-.668-2.117-1.36-3.135-1.86l-.969 1.404z" fill="#000"/><path d="M114.235 75.079l-.239-1.727 7.716-1.862-1.534-7.842 1.527-.443 1.927 9.593-9.397 2.28z" fill="#000"/></svg>
